X:1
T:Polska efter Johan Olsen Tajet (kort trea)
B:Ernst Övergaard 813
R:Polska
O:Elverum, Norge
M:3/4
L:1/8
K:D
|: (FA) (FA) FA | (GB) (GB) GB | !uppermordent! e>d c>A Bc | d>f e>c A2 | 
(FA) (FA) FA | (GB) (GB) GB | !uppermordent! e>d c>A Bc | d4 - d2 :|
|: (df) (df) ef | g4 - g2 | (ce) (ce) de | f4 - f2 | 
(FA) (FA) FA | (GB) (GB) GB | !uppermordent! e>d c>A Bc | d4 - d2 :|

